X: 33402
T: Quiet Land Of Erin, The
R: reel
M: 4/4
K: Aminor
cd|e3e dB AG|A2AGA2cd|e2g2ede2-|
e2cd e3e|d3BA2AG|E2cd ee3|dB3A2AG|
A6cc|c3A GEG2|A4cde2|g2e2e4|
e2cd ee3|de/d/ cde2d2-|d2BG A4|

